X:1
T:[ID 7-106]
T:[ID 7-106]
T:Bezeichnung standardisiert: Quadrille Quadrillge
T:Urheber unbekannt Datum in der hier transkribierten schriftlichen Quelle: 1776 - 1791
C:Urheber unbekannt
C:Datum in der hier transkribierten schriftlichen Quelle: 1776 - 1791
L:1/8
M:2/4
K:G
V:1 treble 
V:1
 G2 G>G | B2 z2 | G2 G>G | D2 z2 | G2 G>G | B2 B2 | AGAB | G2 z2 :: B3 c | d2 dg | (gf)(fe) | %11
 e2 d2 | B3 c | defg | dcBA | G2 z2 :: GFGA | BABc | dBAc | c2 B2 | GFGA | BABc | dcBA | G2 z2 :: %24
 d3 c | B3 c | d2 e2 | f2 g2 | d3 c | B3 c | dcBA | G2 z2 :| %32

